X:52
T:Month of May, The.. JBu.52
O:England,South Yorkshire
S:Joshua Burnett’s MS,c1835,S.Yorkshire
M:6/8
L:1/8
Q:3/8=120
R:jig
Z:vmp.R.Greig.2011
K:G
d/B/|G2G (GFG)|(A2G)(c2B)|(e2d) cBA|G2G AFD|
G2G (GFG)A2Gc2B|e2d cBA|G2″^cr in MS”BG2:|
G|A2AA2B|(c2d) (B2d)|g2dg2d|cBAd2d|
A2AA2B|(c2d)(B2d)|g2dg2d|ded cB”DC”A|]

